X:33
T:Greenwood
K:F clef=treble
M:6/8
L:1/8
P:(AB)4
P:A
[|:"F"f2f f2c | "Dm"d2 d A3 | "Bb"B>cd d>ef | "C" g2f e2 d
    | "F" f2 f f2 c | "Dm"d2cA2f | "C"e2d c>BA | "Gm"B3 G3 :|
[|: "Dm"d2d f>ed | "Am"c2A e2c | "Dm"d>ed f>ed \
    |1 "Am"a2A A2 c :|2 "Am"a2A A2 d :|]
P:B
[|: "C"c2A c>BA | "Bb"BGG G2G | "A"AAA A>Bc \
     |1  "Dm"dDD D2 d \
    :|2 "Dm"dDD D3 |]

